src/assets/duotone/MoneyTick.svg

<svg width="24" height="24" viewBox="0 0 24 24"  xmlns="http://www.w3.org/2000/svg">
<path opacity="0.4" d="M22 9V15C22 18.5 20 20 17 20H8.45001C8.80001 19.41 9 18.73 9 18C9 15.79 7.21 14 5 14C3.8 14 2.73 14.53 2 15.36V9C2 5.5 4 4 7 4H17C20 4 22 5.5 22 9Z" />
<path d="M12 14.5C13.3807 14.5 14.5 13.3807 14.5 12C14.5 10.6193 13.3807 9.5 12 9.5C10.6193 9.5 9.5 10.6193 9.5 12C9.5 13.3807 10.6193 14.5 12 14.5Z" />
<path d="M18.5 14.75C18.09 14.75 17.75 14.41 17.75 14V10C17.75 9.59 18.09 9.25 18.5 9.25C18.91 9.25 19.25 9.59 19.25 10V14C19.25 14.41 18.91 14.75 18.5 14.75Z" />
<path d="M5 14C2.79 14 1 15.79 1 18C1 18.75 1.20999 19.46 1.57999 20.06C2.26999 21.22 3.54 22 5 22C6.46 22 7.73001 21.22 8.42001 20.06C8.79001 19.46 9 18.75 9 18C9 15.79 7.21 14 5 14ZM6.97 17.67L4.84 19.64C4.7 19.77 4.50999 19.84 4.32999 19.84C4.13999 19.84 3.94999 19.77 3.79999 19.62L2.81 18.63C2.52 18.34 2.52 17.86 2.81 17.57C3.1 17.28 3.58 17.28 3.87 17.57L4.35001 18.05L5.95001 16.57C6.25001 16.29 6.73001 16.31 7.01001 16.61C7.29001 16.91 7.27 17.39 6.97 17.67Z" />
</svg>

<?xml version="1.0" encoding="UTF-8"?>
<svg width="24" height="24" viewBox="0 0 24 24" xmlns="http://www.w3.org/2000/svg">
 <path d="m22 9v6c0 3.5-2 5-5 5h-8.55c0.35-0.59 0.54999-1.27 0.54999-2 0-2.21-1.79-4-4-4-1.2 0-2.27 0.53-3 1.36v-6.36c0-3.5 2-5 5-5h10c3 0 5 1.5 5 5z" opacity=".4"/>
 <path d="m12 14.5c1.3807 0 2.5-1.1193 2.5-2.5s-1.1193-2.5-2.5-2.5-2.5 1.1193-2.5 2.5 1.1193 2.5 2.5 2.5z"/>
 <path d="m18.5 14.75c-0.41 0-0.75-0.34-0.75-0.75v-4c0-0.41 0.34-0.75 0.75-0.75s0.75 0.34 0.75 0.75v4c0 0.41-0.34 0.75-0.75 0.75z"/>
 <path d="m5 14c-2.21 0-4 1.79-4 4 0 0.75 0.20999 1.46 0.57999 2.06 0.69 1.16 1.96 1.94 3.42 1.94s2.73-0.78 3.42-1.94c0.37-0.6 0.57999-1.31 0.57999-2.06 0-2.21-1.79-4-4-4zm1.97 3.67-2.13 1.97c-0.14 0.13-0.33001 0.2-0.51001 0.2-0.19 0-0.38-0.07-0.53-0.22l-0.98999-0.99c-0.29-0.29-0.29-0.77 0-1.06s0.77-0.29 1.06 0l0.48001 0.48 1.6-1.48c0.3-0.28 0.78-0.26 1.06 0.04s0.25999 0.78-0.04001 1.06z"/>
</svg>
